src/topics/icons/clion.svg

<svg height="256" preserveAspectRatio="xMidYMid" viewBox="0 0 256 256" width="256" xmlns="http://www.w3.org/2000/svg" xmlns:xlink="http://www.w3.org/1999/xlink"><linearGradient id="a" x1=".241935%" x2="115.268817%" y1="50%" y2="50%"><stop offset="0" stop-color="#ed358c"/><stop offset=".16" stop-color="#e9388c"/><stop offset=".3" stop-color="#de418c"/><stop offset=".43" stop-color="#cc508c"/><stop offset=".57" stop-color="#b2658d"/><stop offset=".7" stop-color="#90808d"/><stop offset=".83" stop-color="#67a18e"/><stop offset=".95" stop-color="#37c78f"/><stop offset="1" stop-color="#22d88f"/></linearGradient><linearGradient id="b"><stop offset=".09" stop-color="#22d88f"/><stop offset=".9" stop-color="#029de0"/></linearGradient><linearGradient id="c" x1="66.762295%" x2="28.196721%" xlink:href="#b" y1="17.457447%" y2="151.840426%"/><linearGradient id="d" x1="10618.1424%" x2="-1095.23079%" xlink:href="#b" y1="-66066%" y2="-79666%"/><linearGradient id="e" x1="5973.42462%" x2="9952.73006%" xlink:href="#b" y1="-73910%" y2="-74606%"/><path d="m98.4 103.6-17.2 7.2 15.6-110.8 58.8 32.4z" fill="url(#a)"/><path d="m89.2 153.6 8.4-153.6-74 46.4-23.6 141.6z" fill="url(#c)"/><path d="m250.8 76.8-32.8-67.2-62.4 22.8-45.6 50.4-110 105.2 83.2 60.8 104-94.4z" fill="url(#d)"/><path d="m107.6 109.2-14.4 87.6 58.4 45.2 64 14 40.4-91.2z" fill="url(#e)"/><path d="m48 48h160v160h-160z"/><path d="m63.2 178h60v10h-60zm-1.2-75.6c-.2042384-9.1845367 3.3544128-18.0534798 9.8504665-24.5495335s15.3649968-10.0547049 24.5495335-9.8504665c12.4 0 20 4 26 10.4l-9.2 10.8c-5.2-4.8-10.4-7.6-16.8-7.6-11.2 0-19.2 9.2-19.2 20.8 0 11.2 8 20.8 19.2 20.8 7.6 0 12.4-3.2 17.6-7.6l9.2 9.2c-6.8 7.2-14.4 12-27.2 12-9.0870949.000629-17.7963035-3.63636-24.1841644-10.099372-6.387861-6.463013-9.9227426-15.214162-9.8158356-24.300628zm71.2-33.6h14.8v54h28.8v12.4h-43.6z" fill="#fff"/></svg>

<?xml version="1.0" encoding="UTF-8" standalone="no"?>
<svg width="256px" height="256px" viewBox="0 0 256 256" version="1.1" xmlns="http://www.w3.org/2000/svg" xmlns:xlink="http://www.w3.org/1999/xlink" preserveAspectRatio="xMidYMid">
    <defs>
        <linearGradient x1="0.241935484%" y1="50%" x2="115.268817%" y2="50%" id="linearGradient-1">
            <stop stop-color="#ED358C" offset="0%"></stop>
            <stop stop-color="#E9388C" offset="16%"></stop>
            <stop stop-color="#DE418C" offset="30%"></stop>
            <stop stop-color="#CC508C" offset="43%"></stop>
            <stop stop-color="#B2658D" offset="57%"></stop>
            <stop stop-color="#90808D" offset="70%"></stop>
            <stop stop-color="#67A18E" offset="83%"></stop>
            <stop stop-color="#37C78F" offset="95%"></stop>
            <stop stop-color="#22D88F" offset="100%"></stop>
        </linearGradient>
        <linearGradient x1="66.7622951%" y1="17.4574468%" x2="28.1967213%" y2="151.840426%" id="linearGradient-2">
            <stop stop-color="#22D88F" offset="9%"></stop>
            <stop stop-color="#029DE0" offset="90%"></stop>
        </linearGradient>
        <linearGradient x1="10618.1424%" y1="-66066%" x2="-1095.23079%" y2="-79666%" id="linearGradient-3">
            <stop stop-color="#22D88F" offset="9%"></stop>
            <stop stop-color="#029DE0" offset="90%"></stop>
        </linearGradient>
        <linearGradient x1="5973.42462%" y1="-73910%" x2="9952.73006%" y2="-74606%" id="linearGradient-4">
            <stop stop-color="#22D88F" offset="9%"></stop>
            <stop stop-color="#029DE0" offset="90%"></stop>
        </linearGradient>
    </defs>
	<g>
		<polygon fill="url(#linearGradient-1)" points="98.4 103.6 81.2 110.8 96.8 0 155.6 32.4"></polygon>
		<polygon fill="url(#linearGradient-2)" points="89.2 153.6 97.6 0 23.6 46.4 0 188"></polygon>
		<polygon fill="url(#linearGradient-3)" points="250.8 76.8 218 9.6 155.6 32.4 110 82.8 0 188 83.2 248.8 187.2 154.4"></polygon>
		<polygon fill="url(#linearGradient-4)" points="107.6 109.2 93.2 196.8 151.6 242 215.6 256 256 164.8"></polygon>
		<rect fill="#000000" x="48" y="48" width="160" height="160"></rect>
		<path d="M63.2,178 L123.2,178 L123.2,188 L63.2,188 L63.2,178 Z M62,102.4 C61.7957616,93.2154633 65.3544128,84.3465202 71.8504665,77.8504665 C78.3465202,71.3544128 87.2154633,67.7957616 96.4,68 C108.8,68 116.4,72 122.4,78.4 L113.2,89.2 C108,84.4 102.8,81.6 96.4,81.6 C85.2,81.6 77.2,90.8 77.2,102.4 C77.2,113.6 85.2,123.2 96.4,123.2 C104,123.2 108.8,120 114,115.6 L123.2,124.8 C116.4,132 108.8,136.8 96,136.8 C86.9129051,136.800629 78.2036965,133.16364 71.8158356,126.700628 C65.4279746,120.237615 61.893093,111.486466 62,102.4 Z M133.2,68.8 L148,68.8 L148,122.8 L176.8,122.8 L176.8,135.2 L133.2,135.2 L133.2,68.8 Z" fill="#FFFFFF"></path>
	</g>
</svg>
